static/images/logo.svg

<svg width="296" height="88" viewBox="0 0 296 88" fill="none" xmlns="http://www.w3.org/2000/svg">
<path d="M6.86173 68V22.5324H19.7535C22.8493 22.5324 25.5524 22.902 27.8628 23.6413C30.2193 24.3807 32.0445 25.5589 33.3383 27.1762C34.6783 28.7934 35.3483 30.942 35.3483 33.622C35.3483 35.8862 34.7014 37.9424 33.4076 39.7907C32.1138 41.5927 30.1038 42.8403 27.3776 43.5334V43.8107C30.7045 44.3189 33.2921 45.4741 35.1404 47.2762C36.9886 49.0783 37.9128 51.5503 37.9128 54.6924C37.9128 57.6496 37.1966 60.1217 35.7642 62.1086C34.3317 64.0955 32.3217 65.5741 29.7342 66.5445C27.1928 67.5148 24.2124 68 20.7931 68H6.86173ZM12.6145 41.6621H18.7831C22.6645 41.6621 25.4369 41.0383 27.1004 39.7907C28.81 38.5431 29.6648 36.6486 29.6648 34.1072C29.6648 31.6583 28.7638 29.9255 26.9617 28.9089C25.2059 27.8924 22.5721 27.3841 19.0604 27.3841H12.6145V41.6621ZM12.6145 63.1483H19.9614C23.8428 63.1483 26.8462 62.4783 28.9717 61.1383C31.1435 59.7521 32.2293 57.511 32.2293 54.4152C32.2293 51.5965 31.1666 49.5865 29.0411 48.3852C26.9617 47.1376 23.9352 46.5138 19.9614 46.5138H12.6145V63.1483Z" fill="white"/>
<rect x="12.5857" y="17.4805" width="4.19528" height="6.40945" fill="white"/>
<rect x="12.5857" y="68.0566" width="4.19528" height="6.40945" fill="white"/>
<rect x="19.8113" y="17.4805" width="4.19528" height="6.40945" fill="white"/>
<rect x="19.8113" y="68.0566" width="4.19528" height="6.40945" fill="white"/>
<rect x="44.2839" y="33.7949" width="5.82677" height="34.9606" fill="white"/>
<circle cx="47.1976" cy="27.3859" r="4.07874" fill="white"/>
<path d="M75.0875 68.6361C71.8068 68.6361 69.2192 68.0585 67.3247 66.9034C65.4302 65.702 64.0671 64.0616 63.2354 61.9823C62.4499 59.903 62.0571 57.4771 62.0571 54.7047V38.4567H55.937V33.7953H62.3465L63.0275 23.3071H67.7406V33.7953H78.0787V38.4567H67.7406V54.774C67.7406 56.7609 67.9947 58.4475 68.503 59.8337C69.0112 61.2199 69.8892 62.2596 71.1368 62.9527C72.3844 63.6458 74.159 63.7257 76.3307 63.7257C77.948 63.7257 78.0787 63.7257 79.2441 63.7257L79.8268 67.8044C79.8268 67.8044 77.213 68.6361 75.0875 68.6361Z" fill="white"/>
<path d="M87.2709 68V22.5324H100.163C103.259 22.5324 105.962 22.902 108.272 23.6413C110.629 24.3807 112.454 25.5589 113.747 27.1762C115.087 28.7934 115.757 30.942 115.757 33.622C115.757 35.8862 115.111 37.9424 113.817 39.7907C112.523 41.5927 110.513 42.8403 107.787 43.5334V43.8107C111.114 44.3189 113.701 45.4741 115.55 47.2762C117.398 49.0783 118.322 51.5503 118.322 54.6924C118.322 57.6496 117.606 60.1217 116.173 62.1086C114.741 64.0955 112.731 65.5741 110.143 66.5445C107.602 67.5148 104.622 68 101.202 68H87.2709ZM93.0237 41.6621H99.1923C103.074 41.6621 105.846 41.0383 107.51 39.7907C109.219 38.5431 110.074 36.6486 110.074 34.1072C110.074 31.6583 109.173 29.9255 107.371 28.9089C105.615 27.8924 102.981 27.3841 99.4695 27.3841H93.0237V41.6621ZM93.0237 63.1483H100.371C104.252 63.1483 107.255 62.4783 109.381 61.1383C111.553 59.7521 112.639 57.511 112.639 54.4152C112.639 51.5965 111.576 49.5865 109.45 48.3852C107.371 47.1376 104.344 46.5138 100.371 46.5138H93.0237V63.1483ZM132.088 68.8317C130.008 68.8317 128.091 68.4621 126.335 67.7228C124.579 66.9372 123.193 65.8283 122.176 64.3959C121.16 62.9634 120.651 61.2538 120.651 59.2669C120.651 55.4779 122.546 52.6131 126.335 50.6724C130.124 48.6855 136.362 47.3455 145.049 46.6524C145.002 45.1276 144.679 43.7183 144.078 42.4245C143.524 41.1307 142.6 40.1141 141.306 39.3748C140.012 38.5893 138.279 38.1965 136.108 38.1965C134.675 38.1965 133.243 38.4045 131.81 38.8203C130.424 39.19 129.084 39.6983 127.79 40.3452C126.543 40.9458 125.388 41.5696 124.325 42.2165L122.107 38.3352C123.216 37.5958 124.556 36.8565 126.127 36.1172C127.744 35.3317 129.477 34.7079 131.325 34.2458C133.174 33.7376 135.091 33.4834 137.078 33.4834C140.174 33.4834 142.715 34.061 144.702 35.2162C146.735 36.3714 148.237 37.9886 149.207 40.0679C150.224 42.101 150.732 44.5269 150.732 47.3455V68H146.088L145.603 63.4255H145.395C143.547 64.9041 141.468 66.1748 139.157 67.2376C136.847 68.3003 134.49 68.8317 132.088 68.8317ZM133.612 64.2572C135.553 64.2572 137.471 63.8183 139.365 62.9403C141.26 62.0624 143.154 60.8379 145.049 59.2669V50.3952C140.243 50.811 136.454 51.3886 133.682 52.1279C130.956 52.8672 129.015 53.8145 127.86 54.9696C126.751 56.0786 126.196 57.3724 126.196 58.851C126.196 60.0986 126.543 61.1383 127.236 61.97C127.929 62.7555 128.83 63.3331 129.939 63.7028C131.094 64.0724 132.319 64.2572 133.612 64.2572ZM156.111 68V34.3151H160.824L161.31 40.0679H161.587C163.343 38.1734 165.237 36.6024 167.27 35.3548C169.303 34.1072 171.637 33.4834 174.271 33.4834C178.244 33.4834 181.179 34.6386 183.073 36.9489C184.968 39.2593 185.915 42.6324 185.915 47.0683V68H180.231V47.8307C180.231 44.6424 179.631 42.2858 178.429 40.761C177.228 39.19 175.241 38.4045 172.469 38.4045C170.482 38.4045 168.703 38.9127 167.132 39.9293C165.561 40.9458 163.782 42.4707 161.795 44.5038V68H156.111ZM201.344 68.8317C199.265 68.8317 197.347 68.4621 195.591 67.7228C193.835 66.9372 192.449 65.8283 191.433 64.3959C190.416 62.9634 189.908 61.2538 189.908 59.2669C189.908 55.4779 191.802 52.6131 195.591 50.6724C199.38 48.6855 205.618 47.3455 214.305 46.6524C214.259 45.1276 213.935 43.7183 213.335 42.4245C212.78 41.1307 211.856 40.1141 210.562 39.3748C209.268 38.5893 207.536 38.1965 205.364 38.1965C203.931 38.1965 202.499 38.4045 201.067 38.8203C199.68 39.19 198.34 39.6983 197.047 40.3452C195.799 40.9458 194.644 41.5696 193.581 42.2165L191.363 38.3352C192.472 37.5958 193.812 36.8565 195.383 36.1172C197 35.3317 198.733 34.7079 200.581 34.2458C202.43 33.7376 204.347 33.4834 206.334 33.4834C209.43 33.4834 211.971 34.061 213.958 35.2162C215.991 36.3714 217.493 37.9886 218.464 40.0679C219.48 42.101 219.988 44.5269 219.988 47.3455V68H215.345L214.859 63.4255H214.651C212.803 64.9041 210.724 66.1748 208.414 67.2376C206.103 68.3003 203.747 68.8317 201.344 68.8317ZM202.869 64.2572C204.809 64.2572 206.727 63.8183 208.621 62.9403C210.516 62.0624 212.41 60.8379 214.305 59.2669V50.3952C209.499 50.811 205.71 51.3886 202.938 52.1279C200.212 52.8672 198.271 53.8145 197.116 54.9696C196.007 56.0786 195.453 57.3724 195.453 58.851C195.453 60.0986 195.799 61.1383 196.492 61.97C197.185 62.7555 198.086 63.3331 199.195 63.7028C200.35 64.0724 201.575 64.2572 202.869 64.2572ZM225.368 68V34.3151H230.081L230.566 40.0679H230.843C232.599 38.1734 234.493 36.6024 236.527 35.3548C238.56 34.1072 240.893 33.4834 243.527 33.4834C247.501 33.4834 250.435 34.6386 252.329 36.9489C254.224 39.2593 255.171 42.6324 255.171 47.0683V68H249.488V47.8307C249.488 44.6424 248.887 42.2858 247.685 40.761C246.484 39.19 244.497 38.4045 241.725 38.4045C239.738 38.4045 237.959 38.9127 236.388 39.9293C234.817 40.9458 233.038 42.4707 231.051 44.5038V68H225.368ZM270.6 68.8317C268.521 68.8317 266.603 68.4621 264.847 67.7228C263.092 66.9372 261.705 65.8283 260.689 64.3959C259.672 62.9634 259.164 61.2538 259.164 59.2669C259.164 55.4779 261.058 52.6131 264.847 50.6724C268.636 48.6855 274.874 47.3455 283.561 46.6524C283.515 45.1276 283.192 43.7183 282.591 42.4245C282.036 41.1307 281.112 40.1141 279.818 39.3748C278.525 38.5893 276.792 38.1965 274.62 38.1965C273.188 38.1965 271.755 38.4045 270.323 38.8203C268.937 39.19 267.597 39.6983 266.303 40.3452C265.055 40.9458 263.9 41.5696 262.837 42.2165L260.619 38.3352C261.728 37.5958 263.068 36.8565 264.639 36.1172C266.257 35.3317 267.989 34.7079 269.838 34.2458C271.686 33.7376 273.604 33.4834 275.59 33.4834C278.686 33.4834 281.228 34.061 283.215 35.2162C285.248 36.3714 286.749 37.9886 287.72 40.0679C288.736 42.101 289.245 44.5269 289.245 47.3455V68H284.601L284.116 63.4255H283.908C282.059 64.9041 279.98 66.1748 277.67 67.2376C275.359 68.3003 273.003 68.8317 270.6 68.8317ZM272.125 64.2572C274.066 64.2572 275.983 63.8183 277.878 62.9403C279.772 62.0624 281.667 60.8379 283.561 59.2669V50.3952C278.756 50.811 274.967 51.3886 272.194 52.1279C269.468 52.8672 267.527 53.8145 266.372 54.9696C265.263 56.0786 264.709 57.3724 264.709 58.851C264.709 60.0986 265.055 61.1383 265.748 61.97C266.442 62.7555 267.343 63.3331 268.452 63.7028C269.607 64.0724 270.831 64.2572 272.125 64.2572Z" fill="#FDBE00"/>
</svg>

<svg width="296" height="88" fill="none" xmlns="http://www.w3.org/2000/svg"><path d="M6.862 68V22.532h12.891c3.096 0 5.8.37 8.11 1.11 2.356.739 4.181 1.917 5.475 3.534 1.34 1.617 2.01 3.766 2.01 6.446 0 2.264-.647 4.32-1.94 6.169-1.294 1.802-3.304 3.05-6.03 3.742v.278c3.326.508 5.914 1.663 7.762 3.465 1.849 1.802 2.773 4.274 2.773 7.416 0 2.958-.716 5.43-2.149 7.417-1.432 1.986-3.442 3.465-6.03 4.435-2.541.97-5.522 1.456-8.94 1.456H6.861Zm5.752-26.338h6.17c3.88 0 6.653-.624 8.316-1.871 1.71-1.248 2.565-3.142 2.565-5.684 0-2.449-.901-4.181-2.703-5.198-1.756-1.017-4.39-1.525-7.902-1.525h-6.445v14.278Zm0 21.486h7.347c3.882 0 6.885-.67 9.01-2.01 2.172-1.386 3.258-3.627 3.258-6.723 0-2.819-1.062-4.828-3.188-6.03-2.08-1.247-5.106-1.871-9.08-1.871h-7.346v16.634Z" fill="#fff"/><path fill="#fff" d="M12.586 17.48h4.195v6.409h-4.195zm0 50.577h4.195v6.409h-4.195zm7.225-50.577h4.195v6.409h-4.195zm0 50.577h4.195v6.409h-4.195zm24.473-34.262h5.827v34.961h-5.827z"/><circle cx="47.198" cy="27.386" r="4.079" fill="#fff"/><path d="M75.088 68.636c-3.281 0-5.869-.578-7.763-1.733-1.895-1.201-3.258-2.841-4.09-4.92-.785-2.08-1.178-4.506-1.178-7.278V38.457h-6.12v-4.662h6.41l.68-10.488h4.714v10.488h10.338v4.662H67.74v16.317c0 1.987.254 3.673.762 5.06.508 1.386 1.386 2.426 2.634 3.119 1.247.693 3.022.773 5.194.773h2.913l.583 4.078s-2.614.832-4.74.832Z" fill="#fff"/><path d="M87.27 68V22.532h12.893c3.096 0 5.799.37 8.109 1.11 2.357.739 4.182 1.917 5.475 3.534 1.34 1.617 2.01 3.766 2.01 6.446 0 2.264-.646 4.32-1.94 6.169-1.294 1.802-3.304 3.05-6.03 3.742v.278c3.327.508 5.914 1.663 7.763 3.465 1.848 1.802 2.772 4.274 2.772 7.416 0 2.958-.716 5.43-2.149 7.417-1.432 1.986-3.442 3.465-6.03 4.435-2.541.97-5.521 1.456-8.941 1.456H87.271Zm5.754-26.338h6.168c3.882 0 6.654-.624 8.318-1.871 1.709-1.248 2.564-3.142 2.564-5.684 0-2.449-.901-4.181-2.703-5.198-1.756-1.017-4.39-1.525-7.901-1.525h-6.446v14.278Zm0 21.486h7.347c3.881 0 6.884-.67 9.01-2.01 2.172-1.386 3.258-3.627 3.258-6.723 0-2.819-1.063-4.828-3.189-6.03-2.079-1.247-5.106-1.871-9.079-1.871h-7.347v16.634Zm39.064 5.684c-2.08 0-3.997-.37-5.753-1.11-1.756-.785-3.142-1.894-4.159-3.326-1.016-1.433-1.525-3.142-1.525-5.13 0-3.788 1.895-6.653 5.684-8.594 3.789-1.986 10.027-3.326 18.714-4.02-.047-1.524-.37-2.934-.971-4.227-.554-1.294-1.478-2.31-2.772-3.05-1.294-.786-3.027-1.178-5.198-1.178-1.433 0-2.865.207-4.298.623a21.17 21.17 0 0 0-4.02 1.525 40.326 40.326 0 0 0-3.465 1.872l-2.218-3.882c1.109-.74 2.449-1.479 4.02-2.218a26.662 26.662 0 0 1 5.198-1.871 21.605 21.605 0 0 1 5.753-.763c3.096 0 5.637.578 7.624 1.733 2.033 1.155 3.535 2.773 4.505 4.852 1.017 2.033 1.525 4.459 1.525 7.278V68h-4.644l-.485-4.575h-.208c-1.848 1.48-3.927 2.75-6.238 3.813-2.31 1.062-4.667 1.594-7.069 1.594Zm1.524-4.575c1.941 0 3.859-.439 5.753-1.317 1.895-.878 3.789-2.102 5.684-3.673v-8.872c-4.806.416-8.595.994-11.367 1.733-2.726.74-4.667 1.687-5.822 2.842-1.109 1.109-1.664 2.402-1.664 3.881 0 1.248.347 2.287 1.04 3.119.693.785 1.594 1.363 2.703 1.733 1.155.37 2.38.554 3.673.554ZM156.111 68V34.315h4.713l.486 5.753h.277c1.756-1.895 3.65-3.466 5.683-4.713 2.033-1.248 4.367-1.872 7.001-1.872 3.973 0 6.908 1.156 8.802 3.466 1.895 2.31 2.842 5.683 2.842 10.12V68h-5.684V47.83c0-3.188-.6-5.544-1.802-7.069-1.201-1.571-3.188-2.357-5.96-2.357-1.987 0-3.766.509-5.337 1.525-1.571 1.017-3.35 2.542-5.337 4.575V68h-5.684Zm45.233.832c-2.079 0-3.997-.37-5.753-1.11-1.756-.785-3.142-1.894-4.158-3.326-1.017-1.433-1.525-3.142-1.525-5.13 0-3.788 1.894-6.653 5.683-8.594 3.789-1.986 10.027-3.326 18.714-4.02-.046-1.524-.37-2.934-.97-4.227-.555-1.294-1.479-2.31-2.773-3.05-1.294-.786-3.026-1.178-5.198-1.178-1.433 0-2.865.207-4.297.623a21.12 21.12 0 0 0-4.02 1.525 40.2 40.2 0 0 0-3.466 1.872l-2.218-3.882c1.109-.74 2.449-1.479 4.02-2.218a26.662 26.662 0 0 1 5.198-1.871 21.605 21.605 0 0 1 5.753-.763c3.096 0 5.637.578 7.624 1.733 2.033 1.155 3.535 2.773 4.506 4.852 1.016 2.033 1.524 4.459 1.524 7.278V68h-4.643l-.486-4.575h-.208c-1.848 1.48-3.927 2.75-6.237 3.813-2.311 1.062-4.667 1.594-7.07 1.594Zm1.525-4.575c1.94 0 3.858-.439 5.752-1.317 1.895-.878 3.789-2.102 5.684-3.673v-8.872c-4.806.416-8.595.994-11.367 1.733-2.726.74-4.667 1.687-5.822 2.842-1.109 1.109-1.663 2.402-1.663 3.881 0 1.248.346 2.287 1.039 3.119.693.785 1.594 1.363 2.703 1.733 1.155.37 2.38.554 3.674.554ZM225.368 68V34.315h4.713l.485 5.753h.277c1.756-1.895 3.65-3.466 5.684-4.713 2.033-1.248 4.366-1.872 7-1.872 3.974 0 6.908 1.156 8.802 3.466 1.895 2.31 2.842 5.683 2.842 10.12V68h-5.683V47.83c0-3.188-.601-5.544-1.803-7.069-1.201-1.571-3.188-2.357-5.96-2.357-1.987 0-3.766.509-5.337 1.525-1.571 1.017-3.35 2.542-5.337 4.575V68h-5.683Zm45.232.832c-2.079 0-3.997-.37-5.753-1.11-1.755-.785-3.142-1.894-4.158-3.326-1.017-1.433-1.525-3.142-1.525-5.13 0-3.788 1.894-6.653 5.683-8.594 3.789-1.986 10.027-3.326 18.714-4.02-.046-1.524-.369-2.934-.97-4.227-.555-1.294-1.479-2.31-2.773-3.05-1.293-.786-3.026-1.178-5.198-1.178a15.34 15.34 0 0 0-4.297.623 21.17 21.17 0 0 0-4.02 1.525 40.2 40.2 0 0 0-3.466 1.872l-2.218-3.882c1.109-.74 2.449-1.479 4.02-2.218a26.672 26.672 0 0 1 5.199-1.871 21.598 21.598 0 0 1 5.752-.763c3.096 0 5.638.578 7.625 1.733 2.033 1.155 3.534 2.773 4.505 4.852 1.016 2.033 1.525 4.459 1.525 7.278V68h-4.644l-.485-4.575h-.208c-1.849 1.48-3.928 2.75-6.238 3.813-2.311 1.062-4.667 1.594-7.07 1.594Zm1.525-4.575c1.941 0 3.858-.439 5.753-1.317 1.894-.878 3.789-2.102 5.683-3.673v-8.872c-4.805.416-8.594.994-11.367 1.733-2.726.74-4.667 1.687-5.822 2.842-1.109 1.109-1.663 2.402-1.663 3.881 0 1.248.346 2.287 1.039 3.119.694.785 1.595 1.363 2.704 1.733 1.155.37 2.379.554 3.673.554Z" fill="#FDBE00"/></svg>
